static/img/badge-md-icon-size.svg

<svg width="192" height="56" viewBox="0 0 192 56" fill="none" xmlns="http://www.w3.org/2000/svg">
<rect x="12" y="16" width="78" height="24" rx="12" fill="#CBE2F9"/>
<path fill-rule="evenodd" clip-rule="evenodd" d="M30 25H22C21.7239 25 21.5 25.2239 21.5 25.5V30.5C21.5 30.7761 21.7239 31 22 31H30C30.2761 31 30.5 30.7761 30.5 30.5V25.5C30.5 25.2239 30.2761 25 30 25ZM22 23.5C20.8954 23.5 20 24.3954 20 25.5V30.5C20 31.6046 20.8954 32.5 22 32.5H30C31.1046 32.5 32 31.6046 32 30.5V25.5C32 24.3954 31.1046 23.5 30 23.5H22ZM25.0625 29.6875C25.0625 29.2733 25.3983 28.9375 25.8125 28.9375H29.1875C29.6017 28.9375 29.9375 29.2733 29.9375 29.6875C29.9375 30.1017 29.6017 30.4375 29.1875 30.4375H25.8125C25.3983 30.4375 25.0625 30.1017 25.0625 29.6875ZM23.3428 25.7822C23.0499 25.4893 22.5751 25.4893 22.2822 25.7822C21.9893 26.0751 21.9893 26.5499 22.2822 26.8428L23.4393 28L22.2822 29.1572C21.9893 29.4501 21.9893 29.9249 22.2822 30.2178C22.5751 30.5107 23.0499 30.5107 23.3428 30.2178L25.0303 28.5303L25.5607 28L25.0303 27.4697L23.3428 25.7822Z" fill="#1F75CB"/>
<path d="M37.0547 32V23.2695H38.6367L40.7871 28.7773C40.9863 29.2871 41.3438 30.4297 41.5488 31.1914H41.3027C41.5137 30.4766 41.8711 29.3105 42.0762 28.7773L44.1973 23.2695H45.7852V32H44.6895V27.0137C44.6895 26.293 44.7129 25.1152 44.7363 24.1367H44.8301C44.4961 25.2207 44.0742 26.4453 43.8516 27.0137L41.9004 32H40.9336L38.9531 27.0137C38.7363 26.4688 38.3438 25.2734 37.957 24.1367H38.0625C38.0859 25.0098 38.1152 26.2461 38.1152 27.0137V32H37.0547ZM50.5195 32.1406C48.6211 32.1406 47.4492 30.793 47.4492 28.7773C47.4492 26.7676 48.6094 25.3672 50.3965 25.3672C51.7852 25.3672 53.25 26.2227 53.25 28.6426V29.082H48.1641V28.1914H52.6816L52.1895 28.5195C52.1895 27.2305 51.5801 26.3047 50.3965 26.3047C49.2129 26.3047 48.5156 27.2832 48.5156 28.3496V28.9414C48.5156 30.4004 49.3242 31.2031 50.5254 31.2031C51.2988 31.2031 51.8789 30.8633 52.125 30.1953L53.1445 30.4766C52.8398 31.4668 51.8613 32.1406 50.5195 32.1406ZM57.2168 32.1406C55.582 32.1406 54.4453 30.8281 54.4453 28.7422C54.4453 26.668 55.5879 25.3672 57.2227 25.3672C58.5 25.3672 58.9043 26.1523 59.1211 26.498H59.2031V23.2695H60.2578V32H59.2383V30.9863H59.1211C58.9043 31.3496 58.4648 32.1406 57.2168 32.1406ZM57.375 31.1973C58.5645 31.1973 59.2148 30.1895 59.2148 28.7305C59.2148 27.2832 58.582 26.3105 57.375 26.3105C56.1328 26.3105 55.5176 27.3711 55.5176 28.7305C55.5176 30.1074 56.1504 31.1973 57.375 31.1973ZM62.1094 32V25.4492H63.1641V32H62.1094ZM62.6426 24.377C62.2441 24.377 61.9102 24.0664 61.9102 23.6797C61.9102 23.293 62.2441 22.9824 62.6426 22.9824C63.0469 22.9824 63.3809 23.293 63.3809 23.6797C63.3809 24.0664 63.0469 24.377 62.6426 24.377ZM67.2363 32.082C65.9121 32.082 65.0156 31.2676 65.0156 29.6094V25.4492H66.0703V29.5215C66.0703 30.5293 66.6387 31.1328 67.5527 31.1328C68.4902 31.1328 69.1992 30.4941 69.1992 29.375V25.4492H70.2598V32H69.2402V30.4121H69.3809C68.9766 31.6426 68.1973 32.082 67.2363 32.082ZM72.1172 32V25.4492H73.1426L73.1484 26.9141H73.0664C73.3301 25.8535 74.1328 25.332 74.9824 25.332C75.9316 25.332 76.5352 25.9766 76.7109 26.9258H76.5703C76.8047 25.9473 77.6719 25.332 78.7148 25.332C79.8516 25.332 80.7773 26.0645 80.7773 27.582V32H79.7168V27.6113C79.7168 26.668 79.1016 26.293 78.3984 26.293C77.5137 26.293 76.9746 26.8965 76.9746 27.7227V32H75.9199V27.5059C75.9199 26.7793 75.375 26.293 74.6367 26.293C73.8691 26.293 73.1719 26.832 73.1719 27.875V32H72.1172Z" fill="#0B5CAD"/>
<rect width="12" height="12" transform="translate(20 22)" fill="#CBE2F9"/>
<path fill-rule="evenodd" clip-rule="evenodd" d="M30.5 24.625H21.5C21.2929 24.625 21.125 24.7929 21.125 25V31C21.125 31.2071 21.2929 31.375 21.5 31.375H30.5C30.7071 31.375 30.875 31.2071 30.875 31V25C30.875 24.7929 30.7071 24.625 30.5 24.625ZM21.5 23.5C20.6716 23.5 20 24.1716 20 25V31C20 31.8284 20.6716 32.5 21.5 32.5H30.5C31.3284 32.5 32 31.8284 32 31V25C32 24.1716 31.3284 23.5 30.5 23.5H21.5ZM25.25 29.6875C25.25 29.3768 25.5018 29.125 25.8125 29.125H29.1875C29.4982 29.125 29.75 29.3768 29.75 29.6875C29.75 29.9982 29.4982 30.25 29.1875 30.25H25.8125C25.5018 30.25 25.25 29.9982 25.25 29.6875ZM23.2102 25.9148C22.9906 25.6951 22.6344 25.6951 22.4148 25.9148C22.1951 26.1344 22.1951 26.4906 22.4148 26.7102L23.7045 28L22.4148 29.2898C22.1951 29.5094 22.1951 29.8656 22.4148 30.0852C22.6344 30.3049 22.9906 30.3049 23.2102 30.0852L24.8977 28.3977L25.2955 28L24.8977 27.6023L23.2102 25.9148Z" fill="#1F75CB"/>
<rect x="98" y="16" width="82" height="24" rx="12" fill="#CBE2F9"/>
<path fill-rule="evenodd" clip-rule="evenodd" d="M120 23.5H108C107.724 23.5 107.5 23.7239 107.5 24V32C107.5 32.2761 107.724 32.5 108 32.5H120C120.276 32.5 120.5 32.2761 120.5 32V24C120.5 23.7239 120.276 23.5 120 23.5ZM108 22C106.895 22 106 22.8954 106 24V32C106 33.1046 106.895 34 108 34H120C121.105 34 122 33.1046 122 32V24C122 22.8954 121.105 22 120 22H108ZM113 30.25C113 29.8358 113.336 29.5 113.75 29.5H118.25C118.664 29.5 119 29.8358 119 30.25C119 30.6642 118.664 31 118.25 31H113.75C113.336 31 113 30.6642 113 30.25ZM110.28 25.2197C109.987 24.9268 109.513 24.9268 109.22 25.2197C108.927 25.5126 108.927 25.9874 109.22 26.2803L110.939 28L109.22 29.7197C108.927 30.0126 108.927 30.4874 109.22 30.7803C109.513 31.0732 109.987 31.0732 110.28 30.7803L112.53 28.5303L113.061 28L112.53 27.4697L110.28 25.2197Z" fill="#1F75CB"/>
<path d="M127.055 32V23.2695H128.637L130.787 28.7773C130.986 29.2871 131.344 30.4297 131.549 31.1914H131.303C131.514 30.4766 131.871 29.3105 132.076 28.7773L134.197 23.2695H135.785V32H134.689V27.0137C134.689 26.293 134.713 25.1152 134.736 24.1367H134.83C134.496 25.2207 134.074 26.4453 133.852 27.0137L131.9 32H130.934L128.953 27.0137C128.736 26.4688 128.344 25.2734 127.957 24.1367H128.062C128.086 25.0098 128.115 26.2461 128.115 27.0137V32H127.055ZM140.52 32.1406C138.621 32.1406 137.449 30.793 137.449 28.7773C137.449 26.7676 138.609 25.3672 140.396 25.3672C141.785 25.3672 143.25 26.2227 143.25 28.6426V29.082H138.164V28.1914H142.682L142.189 28.5195C142.189 27.2305 141.58 26.3047 140.396 26.3047C139.213 26.3047 138.516 27.2832 138.516 28.3496V28.9414C138.516 30.4004 139.324 31.2031 140.525 31.2031C141.299 31.2031 141.879 30.8633 142.125 30.1953L143.145 30.4766C142.84 31.4668 141.861 32.1406 140.52 32.1406ZM147.217 32.1406C145.582 32.1406 144.445 30.8281 144.445 28.7422C144.445 26.668 145.588 25.3672 147.223 25.3672C148.5 25.3672 148.904 26.1523 149.121 26.498H149.203V23.2695H150.258V32H149.238V30.9863H149.121C148.904 31.3496 148.465 32.1406 147.217 32.1406ZM147.375 31.1973C148.564 31.1973 149.215 30.1895 149.215 28.7305C149.215 27.2832 148.582 26.3105 147.375 26.3105C146.133 26.3105 145.518 27.3711 145.518 28.7305C145.518 30.1074 146.15 31.1973 147.375 31.1973ZM152.109 32V25.4492H153.164V32H152.109ZM152.643 24.377C152.244 24.377 151.91 24.0664 151.91 23.6797C151.91 23.293 152.244 22.9824 152.643 22.9824C153.047 22.9824 153.381 23.293 153.381 23.6797C153.381 24.0664 153.047 24.377 152.643 24.377ZM157.236 32.082C155.912 32.082 155.016 31.2676 155.016 29.6094V25.4492H156.07V29.5215C156.07 30.5293 156.639 31.1328 157.553 31.1328C158.49 31.1328 159.199 30.4941 159.199 29.375V25.4492H160.26V32H159.24V30.4121H159.381C158.977 31.6426 158.197 32.082 157.236 32.082ZM162.117 32V25.4492H163.143L163.148 26.9141H163.066C163.33 25.8535 164.133 25.332 164.982 25.332C165.932 25.332 166.535 25.9766 166.711 26.9258H166.57C166.805 25.9473 167.672 25.332 168.715 25.332C169.852 25.332 170.777 26.0645 170.777 27.582V32H169.717V27.6113C169.717 26.668 169.102 26.293 168.398 26.293C167.514 26.293 166.975 26.8965 166.975 27.7227V32H165.92V27.5059C165.92 26.7793 165.375 26.293 164.637 26.293C163.869 26.293 163.172 26.832 163.172 27.875V32H162.117Z" fill="#0B5CAD"/>
</svg>

<svg xmlns="http://www.w3.org/2000/svg" width="192" height="56" fill="none" viewBox="0 0 192 56"><rect width="78" height="24" x="12" y="16" fill="#CBE2F9" rx="12"/><path fill="#1F75CB" fill-rule="evenodd" d="M30 25h-8a.5.5 0 0 0-.5.5v5a.5.5 0 0 0 .5.5h8a.5.5 0 0 0 .5-.5v-5a.5.5 0 0 0-.5-.5Zm-8-1.5a2 2 0 0 0-2 2v5a2 2 0 0 0 2 2h8a2 2 0 0 0 2-2v-5a2 2 0 0 0-2-2h-8Zm3.063 6.188a.75.75 0 0 1 .75-.75h3.375a.75.75 0 0 1 0 1.5h-3.375a.75.75 0 0 1-.75-.75Zm-1.72-3.906a.75.75 0 1 0-1.06 1.06L23.438 28l-1.157 1.157a.75.75 0 1 0 1.06 1.06l1.688-1.687.53-.53-.53-.53-1.687-1.688Z" clip-rule="evenodd"/><path fill="#0B5CAD" d="M37.055 32v-8.73h1.582l2.15 5.507c.2.51.557 1.653.762 2.414h-.246c.21-.714.568-1.88.773-2.414l2.121-5.508h1.588V32H44.69v-4.986c0-.721.023-1.899.046-2.877h.094a49.995 49.995 0 0 1-.978 2.877L41.9 32h-.966l-1.98-4.986c-.218-.545-.61-1.74-.997-2.877h.105c.024.873.053 2.11.053 2.877V32h-1.06Zm13.465.14c-1.899 0-3.07-1.347-3.07-3.363 0-2.01 1.16-3.41 2.947-3.41 1.388 0 2.853.856 2.853 3.276v.439h-5.086v-.89h4.518l-.492.328c0-1.29-.61-2.215-1.793-2.215-1.184 0-1.881.978-1.881 2.045v.591c0 1.46.808 2.262 2.01 2.262.773 0 1.353-.34 1.599-1.008l1.02.282c-.305.99-1.284 1.664-2.626 1.664Zm6.697 0c-1.635 0-2.772-1.312-2.772-3.398 0-2.074 1.143-3.375 2.778-3.375 1.277 0 1.681.785 1.898 1.131h.082v-3.229h1.055V32h-1.02v-1.014h-.117c-.217.364-.656 1.155-1.904 1.155Zm.158-.943c1.19 0 1.84-1.008 1.84-2.466 0-1.448-.633-2.42-1.84-2.42-1.242 0-1.857 1.06-1.857 2.42 0 1.376.632 2.466 1.857 2.466Zm4.734.803v-6.55h1.055V32H62.11Zm.534-7.623c-.399 0-.733-.31-.733-.697 0-.387.334-.698.733-.698.404 0 .738.311.738.698 0 .386-.334.697-.738.697Zm4.593 7.705c-1.324 0-2.22-.814-2.22-2.473v-4.16h1.054v4.072c0 1.008.569 1.612 1.483 1.612.937 0 1.646-.639 1.646-1.758v-3.926h1.06V32H69.24v-1.588h.14c-.403 1.23-1.183 1.67-2.144 1.67ZM72.117 32v-6.55h1.026l.005 1.464h-.082c.264-1.06 1.067-1.582 1.916-1.582.95 0 1.553.645 1.729 1.594h-.14c.234-.979 1.1-1.594 2.144-1.594 1.137 0 2.062.732 2.062 2.25V32h-1.06v-4.389c0-.943-.615-1.318-1.319-1.318-.884 0-1.423.604-1.423 1.43V32H75.92v-4.494c0-.727-.545-1.213-1.283-1.213-.768 0-1.465.539-1.465 1.582V32h-1.055Z"/><path fill="#CBE2F9" d="M20 22h12v12H20z"/><path fill="#1F75CB" fill-rule="evenodd" d="M30.5 24.625h-9a.375.375 0 0 0-.375.375v6c0 .207.168.375.375.375h9a.375.375 0 0 0 .375-.375v-6a.375.375 0 0 0-.375-.375Zm-9-1.125A1.5 1.5 0 0 0 20 25v6a1.5 1.5 0 0 0 1.5 1.5h9A1.5 1.5 0 0 0 32 31v-6a1.5 1.5 0 0 0-1.5-1.5h-9Zm3.75 6.188c0-.311.252-.563.563-.563h3.375a.562.562 0 1 1 0 1.125h-3.375a.562.562 0 0 1-.563-.563Zm-2.04-3.773a.562.562 0 1 0-.795.795l1.29 1.29-1.29 1.29a.562.562 0 1 0 .795.795l1.688-1.687.398-.398-.398-.398-1.688-1.687Z" clip-rule="evenodd"/><rect width="82" height="24" x="98" y="16" fill="#CBE2F9" rx="12"/><path fill="#1F75CB" fill-rule="evenodd" d="M120 23.5h-12a.5.5 0 0 0-.5.5v8a.5.5 0 0 0 .5.5h12a.5.5 0 0 0 .5-.5v-8a.5.5 0 0 0-.5-.5ZM108 22a2 2 0 0 0-2 2v8a2 2 0 0 0 2 2h12a2 2 0 0 0 2-2v-8a2 2 0 0 0-2-2h-12Zm5 8.25a.75.75 0 0 1 .75-.75h4.5a.75.75 0 0 1 0 1.5h-4.5a.75.75 0 0 1-.75-.75Zm-2.72-5.03a.75.75 0 1 0-1.06 1.06l1.719 1.72-1.719 1.72a.75.75 0 1 0 1.06 1.06l2.25-2.25.531-.53-.531-.53-2.25-2.25Z" clip-rule="evenodd"/><path fill="#0B5CAD" d="M127.055 32v-8.73h1.582l2.15 5.507c.199.51.557 1.653.762 2.414h-.246c.211-.714.568-1.88.773-2.414l2.121-5.508h1.588V32h-1.096v-4.986c0-.721.024-1.899.047-2.877h.094a50.53 50.53 0 0 1-.978 2.877L131.9 32h-.966l-1.981-4.986c-.217-.545-.609-1.74-.996-2.877h.105c.024.873.053 2.11.053 2.877V32h-1.06Zm13.465.14c-1.899 0-3.071-1.347-3.071-3.363 0-2.01 1.16-3.41 2.947-3.41 1.389 0 2.854.856 2.854 3.276v.439h-5.086v-.89h4.518l-.493.328c0-1.29-.609-2.215-1.793-2.215-1.183 0-1.88.978-1.88 2.045v.591c0 1.46.808 2.262 2.009 2.262.774 0 1.354-.34 1.6-1.008l1.02.282c-.305.99-1.284 1.664-2.625 1.664Zm6.697 0c-1.635 0-2.772-1.312-2.772-3.398 0-2.074 1.143-3.375 2.778-3.375 1.277 0 1.681.785 1.898 1.131h.082v-3.229h1.055V32h-1.02v-1.014h-.117c-.217.364-.656 1.155-1.904 1.155Zm.158-.943c1.189 0 1.84-1.008 1.84-2.466 0-1.448-.633-2.42-1.84-2.42-1.242 0-1.857 1.06-1.857 2.42 0 1.376.632 2.466 1.857 2.466Zm4.734.803v-6.55h1.055V32h-1.055Zm.534-7.623c-.399 0-.733-.31-.733-.697 0-.387.334-.698.733-.698.404 0 .738.311.738.698 0 .386-.334.697-.738.697Zm4.593 7.705c-1.324 0-2.22-.814-2.22-2.473v-4.16h1.054v4.072c0 1.008.569 1.612 1.483 1.612.937 0 1.646-.639 1.646-1.758v-3.926h1.061V32h-1.02v-1.588h.141c-.404 1.23-1.184 1.67-2.145 1.67Zm4.881-.082v-6.55h1.026l.005 1.464h-.082c.264-1.06 1.067-1.582 1.916-1.582.95 0 1.553.645 1.729 1.594h-.141c.235-.979 1.102-1.594 2.145-1.594 1.137 0 2.062.732 2.062 2.25V32h-1.06v-4.389c0-.943-.615-1.318-1.319-1.318-.884 0-1.423.604-1.423 1.43V32h-1.055v-4.494c0-.727-.545-1.213-1.283-1.213-.768 0-1.465.539-1.465 1.582V32h-1.055Z"/></svg>
